symbols/web/sentiment_satisfied/materialsymbolsrounded/sentiment_satisfied_fill1_20px.svg

<svg xmlns="http://www.w3.org/2000/svg" height="20" width="20"><path d="M12.938 9.229q.541 0 .906-.375.364-.375.364-.916 0-.542-.364-.917-.365-.375-.906-.375-.542 0-.928.375-.385.375-.385.917 0 .541.385.916.386.375.928.375Zm-5.813 0q.542 0 .906-.375.365-.375.365-.916 0-.542-.365-.917-.364-.375-.906-.375t-.927.375q-.386.375-.386.917 0 .541.386.916.385.375.927.375ZM10 14.583q1.167 0 2.146-.521.979-.52 1.562-1.374.25-.376.073-.709-.177-.333-.573-.333-.146 0-.312.094-.167.093-.271.218-.458.625-1.146.98-.687.354-1.479.354t-1.469-.365q-.677-.365-1.156-.989-.104-.126-.26-.209-.157-.083-.323-.083-.375 0-.563.323-.187.323.063.698.583.875 1.562 1.395.979.521 2.146.521Zm0 3.75q-1.729 0-3.25-.656t-2.646-1.781q-1.125-1.125-1.781-2.646-.656-1.521-.656-3.25t.656-3.25q.656-1.521 1.781-2.646T6.75 2.323q1.521-.656 3.25-.656t3.25.656q1.521.656 2.646 1.781t1.781 2.646q.656 1.521.656 3.25t-.656 3.25q-.656 1.521-1.781 2.646t-2.646 1.781q-1.521.656-3.25.656Z"/></svg>

<svg xmlns="http://www.w3.org/2000/svg" height="20" width="20"><path d="M12.938 9.229Q13.479 9.229 13.844 8.854Q14.208 8.479 14.208 7.938Q14.208 7.396 13.844 7.021Q13.479 6.646 12.938 6.646Q12.396 6.646 12.01 7.021Q11.625 7.396 11.625 7.938Q11.625 8.479 12.01 8.854Q12.396 9.229 12.938 9.229ZM7.125 9.229Q7.667 9.229 8.031 8.854Q8.396 8.479 8.396 7.938Q8.396 7.396 8.031 7.021Q7.667 6.646 7.125 6.646Q6.583 6.646 6.198 7.021Q5.812 7.396 5.812 7.938Q5.812 8.479 6.198 8.854Q6.583 9.229 7.125 9.229ZM10 14.583Q11.167 14.583 12.146 14.062Q13.125 13.542 13.708 12.688Q13.958 12.312 13.781 11.979Q13.604 11.646 13.208 11.646Q13.062 11.646 12.896 11.74Q12.729 11.833 12.625 11.958Q12.167 12.583 11.479 12.938Q10.792 13.292 10 13.292Q9.208 13.292 8.531 12.927Q7.854 12.562 7.375 11.938Q7.271 11.812 7.115 11.729Q6.958 11.646 6.792 11.646Q6.417 11.646 6.229 11.969Q6.042 12.292 6.292 12.667Q6.875 13.542 7.854 14.062Q8.833 14.583 10 14.583ZM10 18.333Q8.271 18.333 6.75 17.677Q5.229 17.021 4.104 15.896Q2.979 14.771 2.323 13.25Q1.667 11.729 1.667 10Q1.667 8.271 2.323 6.75Q2.979 5.229 4.104 4.104Q5.229 2.979 6.75 2.323Q8.271 1.667 10 1.667Q11.729 1.667 13.25 2.323Q14.771 2.979 15.896 4.104Q17.021 5.229 17.677 6.75Q18.333 8.271 18.333 10Q18.333 11.729 17.677 13.25Q17.021 14.771 15.896 15.896Q14.771 17.021 13.25 17.677Q11.729 18.333 10 18.333Z"/></svg>
